!!!OTL-incipit: Siehgst an net, do kuemmt er, klaana Schrittla nimmt er
!!!ARE: Europa, Mitteleuropa, Deutschland, Ober - Franken, Puechitz
!!!SCT: V0003G
!!!TXL: @@BAR
!!!YEM: Copyright 1995, estate of Helmut Schaffrath.
**kern	**text
*ICvox	*
*M2/4	*
*k[]	*
*C:	*
=1	=1
{8.g	Siehgst
16g	an
8a	net
8g	do
=2	=2
4f	kӮmmt
4b}	er,
=3	=3
{8f	klaa-
8f	-na
8g	Schrit-
8f	-tla
=4	=4
4e	nimmt
4cc}	er.
=5	=5
{8.ee	Siehst
16ee	an
8ff	det,
8ee	da
=6	=6
8ee	kӮmmt
8dd	er
4dd}	schon,
=7	=7
{8dd	der
8dd	be-
8ee	-sof-
8dd	-fne
=8	=8
8dd	Schwie-
8cc	-ger-
4cc}	-sohn.
==	==
!!!AGN: Geselligkeits - Lied, Scherz
!!!ONB: ESAC (Essen Associative Code) Database: VARIANT
!!!AMT: simple duple
!!!AIN: vox
!!!EED: Helmut Schaffrath
!!!EEV: 1.0
!!!GTL: Siehgst as net, da kimmt er (Kreuzpolka)
!!!source: Heigl, U.; Liertz, M. J. et al.: Registeer un Beispielsammlung zu den Forschungsexkursionen des Instituts fӮr Volkskunde nach Oberfranken. Maschinenschriftliches Manuskript, MӮnchen 1982.
!!!page: 87
!!!ENC: Anna Maria Matuszewska
!!!EEV: 2025/04/01
*-	*-
